Delivery-Food/img/logo.svg

<svg width="33" height="33" viewBox="0 0 33 33" fill="none" xmlns="http://www.w3.org/2000/svg">
<path d="M12.2787 4.56271H10.1395V5.6323H12.2787V4.56271Z" fill="black"/>
<path d="M12.2787 6.70187H10.1395V7.77146H12.2787V6.70187Z" fill="black"/>
<path d="M12.2787 8.84103H10.1395V9.91062H12.2787V8.84103Z" fill="black"/>
<path d="M19.7658 5.0975H18.6962C18.6959 5.38107 18.5831 5.65293 18.3826 5.85344C18.1821 6.05396 17.9102 6.16675 17.6266 6.16709V7.23667C18.1938 7.23603 18.7375 7.01045 19.1386 6.60942C19.5396 6.20839 19.7652 5.66465 19.7658 5.0975Z" fill="black"/>
<path d="M22.4398 7.77146V6.70188C22.1563 6.70154 21.8844 6.58875 21.6839 6.38823C21.4834 6.18772 21.3706 5.91586 21.3702 5.63229H20.3007C20.3013 6.19944 20.5269 6.74318 20.9279 7.14421C21.3289 7.54524 21.8727 7.77082 22.4398 7.77146Z" fill="black"/>
<path d="M28.0545 31.0505C27.1517 31.2146 26.2308 31.2557 25.3169 31.1728L16.0182 30.3274C15.8687 30.3138 15.7303 30.2431 15.6316 30.13C15.5329 30.0169 15.4816 29.8701 15.4884 29.7202C15.4952 29.5703 15.5595 29.4287 15.6679 29.325C15.7764 29.2212 15.9207 29.1633 16.0707 29.1632H23.2419C23.5965 29.1626 23.9365 29.0214 24.1871 28.7705C24.4378 28.5196 24.5787 28.1796 24.5789 27.8249V27.8124C24.5783 27.5314 24.4871 27.2581 24.3189 27.033L23.0944 25.401C23.0168 25.2972 22.9748 25.1711 22.9745 25.0415V24.9497C22.9745 24.8311 23.0097 24.7152 23.0756 24.6166C23.1414 24.518 23.2351 24.4411 23.3447 24.3957C23.4542 24.3503 23.5748 24.3385 23.6911 24.3616C23.8075 24.3847 23.9143 24.4418 23.9982 24.5257L26.3399 26.8674C26.3896 26.917 26.4485 26.9564 26.5134 26.9833C26.5783 27.0102 26.6478 27.024 26.7181 27.024H32.6008V25.9544H26.9395L24.7546 23.7693C24.6996 23.7145 24.6409 23.6634 24.5789 23.6166V11.515C24.5789 11.3732 24.5225 11.2372 24.4223 11.1369C24.322 11.0366 24.1859 10.9802 24.0441 10.9802H23.5093V9.37586H24.3115C24.8079 9.37586 25.284 9.17865 25.635 8.82763C25.9861 8.4766 26.1833 8.00051 26.1833 7.50409C26.1833 7.00766 25.9861 6.53157 25.635 6.18054C25.284 5.82952 24.8079 5.63231 24.3115 5.63231H24.2562C24.524 5.31148 24.6616 4.90191 24.6421 4.48449C24.6225 4.06708 24.4471 3.67218 24.1505 3.37783C23.8539 3.08347 23.4576 2.91105 23.0401 2.89464C22.6225 2.87823 22.214 3.01902 21.8952 3.28919C21.8446 2.75947 21.5984 2.26763 21.2047 1.9097C20.8109 1.55176 20.2979 1.35343 19.7658 1.35343C19.2336 1.35343 18.7206 1.55176 18.3269 1.9097C17.9331 2.26763 17.6869 2.75947 17.6363 3.28919C17.3175 3.01902 16.909 2.87823 16.4914 2.89464C16.0739 2.91105 15.6777 3.08347 15.3811 3.37783C15.0845 3.67218 14.909 4.06708 14.8895 4.48449C14.8699 4.90191 15.0076 5.31148 15.2753 5.63231H15.22C14.9425 5.63206 14.6684 5.69389 14.4178 5.81327V3.49315C14.4178 2.64213 14.0798 1.82597 13.478 1.22422C12.8763 0.622457 12.0601 0.284393 11.2091 0.284393C10.3581 0.284393 9.54191 0.622457 8.94016 1.22422C8.3384 1.82597 8.00033 2.64213 8.00033 3.49315V10.9802H7.46554C7.32371 10.9802 7.18768 11.0366 7.08739 11.1369C6.98709 11.2372 6.93075 11.3732 6.93075 11.515V13.8666L4.05898 16.3282H0.513245V17.3977H4.25679C4.38444 17.3977 4.50788 17.3521 4.6048 17.269L7.70446 14.6121C8.02312 14.3392 8.42885 14.1891 8.84845 14.189C8.89225 14.189 8.93507 14.202 8.97149 14.2263C9.00791 14.2507 9.03629 14.2853 9.05305 14.3257C9.06981 14.3662 9.07419 14.4107 9.06564 14.4537C9.05709 14.4967 9.03599 14.5361 9.00501 14.5671L7.08738 16.4848C7.01258 16.5596 6.96164 16.6549 6.94101 16.7586C6.92037 16.8624 6.93096 16.9699 6.97144 17.0676C7.01192 17.1653 7.08047 17.2489 7.16842 17.3076C7.25637 17.3664 7.35977 17.3977 7.46554 17.3977H13.0809C13.1518 17.3977 13.2198 17.4259 13.2699 17.4761C13.3201 17.5262 13.3483 17.5942 13.3483 17.6651C13.3483 17.7361 13.3201 17.8041 13.2699 17.8542C13.2198 17.9044 13.1518 17.9325 13.0809 17.9325H9.06992C8.92808 17.9325 8.79206 17.9889 8.69176 18.0892C8.59147 18.1895 8.53513 18.3255 8.53513 18.4673C8.53513 18.6092 8.59147 18.7452 8.69176 18.8455C8.79206 18.9458 8.92808 19.0021 9.06992 19.0021H14.6852C14.7562 19.0021 14.8242 19.0303 14.8743 19.0804C14.9245 19.1306 14.9526 19.1986 14.9526 19.2695C14.9526 19.3404 14.9245 19.4084 14.8743 19.4586C14.8242 19.5087 14.7562 19.5369 14.6852 19.5369H9.06992C8.92808 19.5369 8.79206 19.5933 8.69176 19.6935C8.59147 19.7938 8.53513 19.9299 8.53513 20.0717C8.53513 20.2135 8.59147 20.3496 8.69176 20.4499C8.79206 20.5501 8.92808 20.6065 9.06992 20.6065H13.6157C13.6866 20.6065 13.7546 20.6347 13.8047 20.6848C13.8549 20.735 13.883 20.803 13.883 20.8739C13.883 20.9448 13.8549 21.0128 13.8047 21.063C13.7546 21.1131 13.6866 21.1413 13.6157 21.1413H9.06992C8.92808 21.1413 8.79206 21.1976 8.69176 21.2979C8.59147 21.3982 8.53513 21.5342 8.53513 21.6761C8.53513 21.8179 8.59147 21.9539 8.69176 22.0542C8.79206 22.1545 8.92808 22.2109 9.06992 22.2109H11.7105C11.7187 22.2113 11.7264 22.2147 11.7323 22.2205C11.7381 22.2263 11.7417 22.234 11.7422 22.2422C11.7427 22.2504 11.7401 22.2585 11.735 22.265C11.7299 22.2714 11.7226 22.2758 11.7145 22.2772L8.04218 22.7362L4.40386 21.6967C4.35603 21.683 4.30653 21.6761 4.25679 21.6761H0.513245V22.7457H4.18192L6.93075 23.5311V28.6284H6.93202C6.93151 28.6986 6.94496 28.7683 6.97158 28.8333C6.9982 28.8984 7.03745 28.9575 7.08708 29.0072C7.13671 29.0569 7.19571 29.0963 7.26068 29.1231C7.32564 29.1499 7.39528 29.1635 7.46554 29.1632H14.5248C14.4348 29.4014 14.4011 29.6573 14.4263 29.9107C14.4515 30.1642 14.535 30.4084 14.6702 30.6242C14.8055 30.8401 14.9887 31.0217 15.2058 31.155C15.4228 31.2883 15.6677 31.3696 15.9214 31.3926L25.22 32.2382C25.5584 32.2691 25.8973 32.2845 26.2367 32.2844C26.9105 32.2844 27.5829 32.2238 28.2458 32.1033L32.6964 31.294L32.5051 30.2417L28.0545 31.0505ZM13.3483 8.84107C13.3484 8.69928 13.4048 8.56335 13.5051 8.46309C13.6053 8.36283 13.7413 8.30643 13.883 8.30627H14.9526C15.5198 8.30691 16.0635 8.53249 16.4645 8.93353C16.8656 9.33456 17.0912 9.87829 17.0918 10.4454C17.0916 10.5872 17.0352 10.7232 16.935 10.8234C16.8347 10.9237 16.6988 10.9801 16.557 10.9802H15.4874C14.9203 10.9796 14.3765 10.754 13.9755 10.353C13.5745 9.95195 13.3489 9.40821 13.3483 8.84107ZM15.22 6.7019H16.557C16.6628 6.7019 16.7662 6.67054 16.8541 6.61178C16.9421 6.55301 17.0106 6.46949 17.0511 6.37176C17.0916 6.27404 17.1022 6.16651 17.0815 6.06277C17.0609 5.95903 17.01 5.86373 16.9352 5.78894L16.133 4.98675C16.0773 4.93107 16.0331 4.86496 16.003 4.79221C15.9729 4.71946 15.9573 4.64148 15.9573 4.56273C15.9573 4.48398 15.9729 4.406 16.003 4.33325C16.0331 4.2605 16.0773 4.19439 16.133 4.13871C16.1887 4.08302 16.2548 4.03885 16.3275 4.00872C16.4003 3.97858 16.4783 3.96307 16.557 3.96307C16.6358 3.96307 16.7137 3.97858 16.7865 4.00872C16.8592 4.03885 16.9253 4.08302 16.981 4.13871L17.7832 4.94089C17.858 5.01569 17.9533 5.06663 18.057 5.08726C18.1608 5.1079 18.2683 5.09731 18.366 5.05683C18.4638 5.01635 18.5473 4.9478 18.6061 4.85985C18.6648 4.7719 18.6962 4.6685 18.6962 4.56273V3.49315C18.6962 3.20947 18.8089 2.93742 19.0094 2.73684C19.21 2.53625 19.4821 2.42356 19.7658 2.42356C20.0494 2.42356 20.3215 2.53625 20.5221 2.73684C20.7227 2.93742 20.8353 3.20947 20.8353 3.49315V4.56273C20.8353 4.6685 20.8667 4.7719 20.9255 4.85985C20.9842 4.9478 21.0678 5.01635 21.1655 5.05683C21.2632 5.09731 21.3707 5.1079 21.4745 5.08726C21.5782 5.06663 21.6735 5.01569 21.7483 4.94089L22.5505 4.13871C22.6062 4.08302 22.6723 4.03885 22.745 4.00872C22.8178 3.97858 22.8958 3.96307 22.9745 3.96307C23.0533 3.96307 23.1312 3.97858 23.204 4.00872C23.2767 4.03885 23.3428 4.08302 23.3985 4.13871C23.4542 4.19439 23.4984 4.2605 23.5285 4.33325C23.5587 4.406 23.5742 4.48398 23.5742 4.56273C23.5742 4.64148 23.5587 4.71946 23.5285 4.79221C23.4984 4.86496 23.4542 4.93107 23.3985 4.98675L22.5963 5.78894C22.5215 5.86373 22.4706 5.95903 22.45 6.06277C22.4293 6.16651 22.4399 6.27404 22.4804 6.37176C22.5209 6.46949 22.5894 6.55301 22.6774 6.61178C22.7653 6.67054 22.8687 6.7019 22.9745 6.7019H24.3115C24.5242 6.7019 24.7283 6.78641 24.8787 6.93685C25.0292 7.08729 25.1137 7.29133 25.1137 7.50409C25.1137 7.71684 25.0292 7.92088 24.8787 8.07132C24.7283 8.22176 24.5242 8.30627 24.3115 8.30627H22.9745C22.8327 8.30627 22.6966 8.36262 22.5964 8.46291C22.4961 8.5632 22.4397 8.69923 22.4397 8.84107V9.12591C21.8157 8.56547 20.9967 8.2723 20.1588 8.30942C19.3208 8.34655 18.531 8.71102 17.959 9.32445C17.7298 8.71191 17.3192 8.18386 16.782 7.81081C16.2448 7.43776 15.6066 7.23747 14.9526 7.23669H14.4646C14.52 7.08049 14.6223 6.94524 14.7575 6.84949C14.8928 6.75374 15.0543 6.70218 15.22 6.7019ZM22.372 10.9802H18.2291C18.3475 10.5209 18.6153 10.1139 18.9903 9.82331C19.3652 9.53273 19.8262 9.37505 20.3006 9.37505C20.7749 9.37505 21.2359 9.53273 21.6108 9.82331C21.9858 10.1139 22.2536 10.5209 22.372 10.9802ZM9.06992 3.49315C9.06992 2.9258 9.29529 2.3817 9.69647 1.98053C10.0976 1.57935 10.6417 1.35398 11.2091 1.35398C11.7764 1.35398 12.3205 1.57935 12.7217 1.98053C13.1229 2.3817 13.3483 2.9258 13.3483 3.49315V7.32867C13.0357 7.43958 12.7651 7.64448 12.5736 7.91525C12.3821 8.18603 12.2791 8.50942 12.2787 8.84107C12.2781 9.63092 12.5701 10.393 13.0983 10.9802H9.06992V3.49315ZM10.1395 12.0498H11.2091V16.3282H10.1395V12.0498ZM8.84845 13.1194C8.56074 13.1195 8.27474 13.1636 8.00033 13.25V12.0498H9.06992V13.1398C8.99682 13.1267 8.92272 13.1198 8.84845 13.1194ZM9.06992 16.0149V16.3282H8.7566L9.06992 16.0149ZM10.1395 23.552L11.2091 23.4183V27.3372L10.1395 26.2676V23.552ZM8.06665 23.8111L9.06992 23.6857V26.2677L8.00033 27.3373V23.8152C8.0225 23.8152 8.04465 23.8138 8.06665 23.8111ZM8.7566 28.0936L9.60471 27.2455L10.4528 28.0936H8.7566ZM12.2787 23.1879C12.4415 23.09 12.5763 22.9516 12.67 22.7863C12.7637 22.6209 12.8131 22.4342 12.8135 22.2442C12.8135 22.233 12.8135 22.2219 12.8129 22.2107H13.6157C13.8157 22.2106 14.0131 22.1657 14.1935 22.0792C14.3738 21.9927 14.5325 21.8668 14.6578 21.7109C14.7831 21.5549 14.8718 21.3729 14.9174 21.1781C14.963 20.9834 14.9643 20.7809 14.9213 20.5855C15.2502 20.5265 15.545 20.3466 15.7478 20.0811C15.9506 19.8156 16.0467 19.4838 16.0171 19.151C15.9875 18.8182 15.8343 18.5086 15.5878 18.2831C15.3413 18.0576 15.0193 17.9325 14.6852 17.9325H14.3911C14.4306 17.7383 14.4264 17.5377 14.3789 17.3452C14.3313 17.1528 14.2416 16.9733 14.1162 16.8198C13.9909 16.6663 13.8329 16.5425 13.6539 16.4575C13.4748 16.3725 13.2791 16.3283 13.0809 16.3282H12.2787V12.0498H23.5093V23.2821C23.0784 23.2994 22.6708 23.4825 22.3718 23.7933C22.0728 24.1041 21.9055 24.5185 21.9049 24.9497V25.0415C21.9057 25.4026 22.0229 25.7538 22.2392 26.0431L23.4636 27.6748C23.4933 27.7146 23.5094 27.7628 23.5095 27.8124V27.8249C23.5096 27.896 23.4815 27.9642 23.4313 28.0146C23.3811 28.065 23.313 28.0934 23.2419 28.0936H12.2787V23.1879Z" fill="black"/>
</svg>

<svg width="33" height="33" fill="none" xmlns="http://www.w3.org/2000/svg"><path d="M12.279 4.563h-2.14v1.07h2.14v-1.07zm0 2.139h-2.14v1.07h2.14v-1.07zm0 2.139h-2.14v1.07h2.14V8.84zm7.487-3.743h-1.07a1.07 1.07 0 01-1.07 1.07v1.069a2.142 2.142 0 002.14-2.14zm2.674 2.673v-1.07a1.07 1.07 0 01-1.07-1.069H20.3a2.142 2.142 0 002.14 2.14z" fill="#000"/><path d="M28.055 31.05a10.17 10.17 0 01-2.738.123l-9.299-.846a.583.583 0 01.053-1.164h7.17a1.34 1.34 0 001.338-1.338v-.013c0-.28-.092-.554-.26-.779l-1.225-1.632a.603.603 0 01-.12-.36v-.091a.6.6 0 011.024-.424l2.342 2.341a.536.536 0 00.378.157h5.883v-1.07h-5.662l-2.184-2.185a1.701 1.701 0 00-.176-.152V11.515a.535.535 0 00-.535-.535h-.535V9.376h.802a1.872 1.872 0 000-3.744h-.055a1.67 1.67 0 00-2.36-2.343 2.14 2.14 0 00-4.26 0 1.67 1.67 0 00-2.36 2.343h-.056a1.87 1.87 0 00-.802.181v-2.32a3.209 3.209 0 10-6.418 0v7.487h-.534a.535.535 0 00-.535.535v2.352l-2.872 2.461H.513v1.07h3.744a.535.535 0 00.348-.129l3.1-2.657a1.76 1.76 0 011.143-.423.222.222 0 01.157.378l-1.918 1.918a.535.535 0 00.379.913h5.615a.267.267 0 010 .535H9.07a.535.535 0 000 1.07h5.615a.267.267 0 110 .534H9.07a.535.535 0 000 1.07h4.546a.267.267 0 010 .534H9.07a.535.535 0 100 1.07h2.64a.033.033 0 01.025.054.034.034 0 01-.02.012l-3.673.46-3.638-1.04a.534.534 0 00-.147-.02H.513v1.069h3.669l2.749.785v5.097h.001a.53.53 0 00.534.535h7.059a1.652 1.652 0 001.396 2.23l9.299.845a11.139 11.139 0 003.026-.135l4.45-.809-.19-1.052-4.451.808zM13.348 8.841a.535.535 0 01.535-.535h1.07a2.141 2.141 0 012.139 2.14.536.536 0 01-.535.534h-1.07a2.141 2.141 0 01-2.139-2.139zm1.872-2.14h1.337a.535.535 0 00.378-.912l-.802-.802a.599.599 0 11.848-.848l.802.802a.535.535 0 00.913-.378v-1.07a1.07 1.07 0 012.14 0v1.07a.535.535 0 00.912.378l.802-.802a.6.6 0 01.848.848l-.802.802a.534.534 0 00.378.913h1.337a.802.802 0 010 1.604h-1.337a.535.535 0 00-.534.535v.285a3.201 3.201 0 00-4.481.198 3.214 3.214 0 00-3.006-2.087h-.488a.804.804 0 01.755-.535zm7.152 4.28h-4.143a2.14 2.14 0 014.143 0zM9.07 3.492a2.14 2.14 0 114.278 0V7.33a1.607 1.607 0 00-1.07 1.512c0 .79.292 1.552.82 2.14H9.07v-7.49zm1.07 8.557h1.07v4.278h-1.07V12.05zm-1.292 1.07c-.287 0-.573.044-.848.13v-1.2h1.07v1.09a1.295 1.295 0 00-.222-.02zm.222 2.895v.313h-.313l.313-.313zm1.07 7.537l1.07-.134v3.92l-1.07-1.07v-2.716zm-2.073.26l1.003-.126v2.582L8 27.338v-3.523a.545.545 0 00.067-.004zm.69 4.282l.848-.849.848.849H8.757zm3.522-4.906a1.104 1.104 0 00.534-.944v-.033h.803a1.338 1.338 0 001.305-1.625 1.337 1.337 0 00-.236-2.653h-.294a1.338 1.338 0 00-1.31-1.605h-.802V12.05h11.23v11.232a1.671 1.671 0 00-1.604 1.668v.091c0 .362.118.713.334 1.002l1.225 1.632a.23.23 0 01.046.137v.013a.268.268 0 01-.268.269H12.279v-4.906z" fill="#000"/></svg>
